trunk/public/assets/images/icons/grey/pause/module.svg

<svg width="16" height="16" xmlns="http://www.w3.org/2000/svg" viewBox="0 0 16 16" shape-rendering="geometricPrecision" fill="#6e6e6e"><defs><mask id="a"><rect fill="#fff" width="100%" height="100%"/><path fill="#000" d="M13.135-1H9.585v7.956H16V-1z"/></mask></defs><g fill="#cb1800"><path d="M10.585 0h1.55v5.956h-1.55zM13.45 0H15v5.956h-1.55z"/></g><path d="M1.98 7.695c0-2.574 2.087-4.66 4.662-4.66v-1.98c-3.665 0-6.64 2.976-6.64 6.64V7.7h1.977v-.003zm6.33 4.157c1.376 0 2.493-1.118 2.493-2.494 0-1.377-1.117-2.492-2.492-2.492V9.36H5.815c.002 1.375 1.12 2.492 2.497 2.492zm0-9.134v1.978c2.573 0 4.662 2.087 4.662 4.662 0 2.576-2.09 4.663-4.66 4.663-2.576 0-4.665-2.085-4.666-4.66H1.668C1.67 13.027 4.645 16 8.31 16c3.663 0 6.64-2.973 6.64-6.64-.002-3.665-2.976-6.64-6.64-6.64z" mask="url(#a)"/></svg>

<?xml version="1.0"?><!DOCTYPE svg PUBLIC "-//W3C//DTD SVG 1.1//EN" "http://www.w3.org/Graphics/SVG/1.1/DTD/svg11.dtd"><svg width="16px" height="16px" xmlns="http://www.w3.org/2000/svg" viewBox="0 0 16 16" shape-rendering="geometricPrecision" fill="#6e6e6e"><defs><mask id="pause-path"><rect fill="#fff" width="100%" height="100%"/><polygon points="13.135,-1 12.45,-1 9.585,-1 9.585,6.956 12.45,6.956 13.135,6.956 16,6.956 16,-1 " fill="#000"/></mask></defs><g fill="#cb1800"><g><rect x="10.585" y="0" width="1.55" height="5.956"/></g><g><rect x="13.45" y="0" width="1.55" height="5.956"/></g></g><g mask="url(#pause-path)"><g><path d="M1.979,7.695c0-2.574,2.088-4.661,4.663-4.661h0.001V1.056H6.642c-3.665,0-6.641,2.975-6.641,6.64v0.002h1.978V7.695z M8.311,11.852c1.375,0,2.492-1.118,2.492-2.494c0-1.377-1.117-2.492-2.492-2.492V9.36H5.814 C5.816,10.735,6.934,11.852,8.311,11.852z M8.311,2.718v1.978c2.572,0,4.661,2.087,4.661,4.662c0,2.576-2.089,4.663-4.661,4.663 c-2.575,0-4.664-2.086-4.665-4.66H1.668c0.002,3.665,2.977,6.637,6.643,6.637c3.662,0,6.638-2.973,6.638-6.64 C14.948,5.693,11.974,2.718,8.311,2.718z"/></g></g></svg>
